packages/kaspersky-hexa-ui-icons/src/iconsSVGs/16x12/FlagEg.svg

<svg width="16" height="12" viewBox="0 0 16 12" fill="none" xmlns="http://www.w3.org/2000/svg">
<g clip-path="url(#clip0_41813_2045)">
<rect x="0.25" y="0.25" width="15.5" height="11.5" rx="1.75" fill="white" stroke="#F5F5F5" stroke-width="0.5"/>
<mask id="mask0_41813_2045" style="mask-type:luminance" maskUnits="userSpaceOnUse" x="0" y="0" width="16" height="12">
<rect x="0.25" y="0.25" width="15.5" height="11.5" rx="1.75" fill="white" stroke="white" stroke-width="0.5"/>
</mask>
<g mask="url(#mask0_41813_2045)">
<path fill-rule="evenodd" clip-rule="evenodd" d="M0 4H16V0H0V4Z" fill="#E41D33"/>
<path fill-rule="evenodd" clip-rule="evenodd" d="M0 12H16V8H0V12Z" fill="#262626"/>
<mask id="path-5-inside-1_41813_2045" fill="white">
<path fill-rule="evenodd" clip-rule="evenodd" d="M6.09521 5.37907C6.09521 5.05925 6.35448 4.79999 6.6743 4.79999C6.78598 4.79999 6.8877 4.86422 6.93572 4.96505L7.23807 5.59999C7.23807 5.59999 7.65661 4.79999 7.99998 4.79999C8.38093 4.79999 8.76188 5.59999 8.76188 5.59999L9.06423 4.96505C9.11225 4.86422 9.21397 4.79999 9.32565 4.79999C9.64547 4.79999 9.90474 5.05925 9.90474 5.37907V6.62379C9.90474 6.8665 9.63153 7.00874 9.4327 6.86956L8.76188 6.39999H8.38093V6.81904C8.38093 7.02943 8.21037 7.19999 7.99998 7.19999C7.78958 7.19999 7.61902 7.02943 7.61902 6.81904V6.39999H7.23807L6.56725 6.86956C6.36842 7.00874 6.09521 6.8665 6.09521 6.62379V5.37907Z"/>
</mask>
<path fill-rule="evenodd" clip-rule="evenodd" d="M6.09521 5.37907C6.09521 5.05925 6.35448 4.79999 6.6743 4.79999C6.78598 4.79999 6.8877 4.86422 6.93572 4.96505L7.23807 5.59999C7.23807 5.59999 7.65661 4.79999 7.99998 4.79999C8.38093 4.79999 8.76188 5.59999 8.76188 5.59999L9.06423 4.96505C9.11225 4.86422 9.21397 4.79999 9.32565 4.79999C9.64547 4.79999 9.90474 5.05925 9.90474 5.37907V6.62379C9.90474 6.8665 9.63153 7.00874 9.4327 6.86956L8.76188 6.39999H8.38093V6.81904C8.38093 7.02943 8.21037 7.19999 7.99998 7.19999C7.78958 7.19999 7.61902 7.02943 7.61902 6.81904V6.39999H7.23807L6.56725 6.86956C6.36842 7.00874 6.09521 6.8665 6.09521 6.62379V5.37907Z" fill="#F4B32E" fill-opacity="0.25" stroke="#C6A846" stroke-width="0.8" mask="url(#path-5-inside-1_41813_2045)"/>
</g>
</g>
<defs>
<clipPath id="clip0_41813_2045">
<rect width="16" height="12" fill="white"/>
</clipPath>
</defs>
</svg>

<svg xmlns="http://www.w3.org/2000/svg" width="16" height="12" fill="none" viewBox="0 0 16 12"><g clip-path="url(#a)"><rect width="16" height="12" fill="#fff" stroke="#f5f5f5" rx="2"/><mask id="b" width="16" height="12" x="0" y="0" maskUnits="userSpaceOnUse" style="mask-type:luminance"><rect width="16" height="12" fill="#fff" stroke="#fff" rx="2"/></mask><g mask="url(#b)"><path fill="#e41d33" fill-rule="evenodd" d="M0 4h16V0H0z" clip-rule="evenodd"/><path fill="#262626" fill-rule="evenodd" d="M0 12h16V8H0z" clip-rule="evenodd"/><mask id="c" fill="#fff"><path fill-rule="evenodd" d="M6.0952 5.379a.579.579 0 0 1 .5791-.579.29.29 0 0 1 .2614.165l.3024.635s.4185-.8.7619-.8c.381 0 .7619.8.7619.8l.3023-.635a.29.29 0 0 1 .2614-.165.579.579 0 0 1 .5791.579v1.2448c0 .2427-.2732.385-.472.2458L8.7619 6.4h-.381v.419a.381.381 0 0 1-.7619 0V6.4h-.381l-.6708.4696c-.1988.1391-.472-.0031-.472-.2458z" clip-rule="evenodd"/></mask><path stroke="#c6a846" d="M6.0952 5.379a.579.579 0 0 1 .5791-.579.29.29 0 0 1 .2614.165l.3024.635s.4185-.8.7619-.8c.381 0 .7619.8.7619.8l.3023-.635a.29.29 0 0 1 .2614-.165.579.579 0 0 1 .5791.579v1.2448c0 .2427-.2732.385-.472.2458L8.7619 6.4h-.381v.419a.381.381 0 0 1-.7619 0V6.4h-.381l-.6708.4696c-.1988.1391-.472-.0031-.472-.2458z" clip-rule="evenodd" mask="url(#c)"/></g></g><defs><clipPath id="a"><path fill="#fff" d="M0 0h16v12H0z"/></clipPath></defs></svg>
